archive-music.svg

<svg fill="currentColor" viewBox="0 0 24 24"><path d="M16.5 16.11V11H20V8H4v13h9.03c-.03-.16-.03-.33-.03-.5 0-2.14 1.5-3.93 3.5-4.39M9 13v-1.5c0-.28.22-.5.5-.5h5c.28 0 .5.22.5.5V13zm12-6H3V3h18zm1 6v2h-2v5.5a2.5 2.5 0 0 1-5 0 2.5 2.5 0 0 1 3.5-2.29V13z"/></svg>

<svg  viewBox="0 0 24 24" fill="currentColor"><path  d="M16.5 16.11V11H20V8H4V21H13.03C13 20.84 13 20.67 13 20.5C13 18.36 14.5 16.57 16.5 16.11M9 13V11.5C9 11.22 9.22 11 9.5 11H14.5C14.78 11 15 11.22 15 11.5V13H9M21 7H3V3H21V7M22 13V15H20V20.5C20 21.88 18.88 23 17.5 23S15 21.88 15 20.5 16.12 18 17.5 18C17.86 18 18.19 18.07 18.5 18.21V13H22Z"/></svg>
